archdroid-icon-theme/Archdroid-Yellow/categories/scalable/applications-science.svg

<svg fill="#FFEB3B" height="48" viewBox="0 0 48 48" width="48" xmlns="http://www.w3.org/2000/svg"><path d="m10 26.36v8l14 7.64 14-7.64v-8l-14 7.64zm14-20.36-22 12 22 12 18-9.82v13.82h4v-16z" fill="#FFEB3B"/></svg>

<svg fill="#FFEB3B" height="48" version="1.1" viewBox="0 0 48 48" width="48" xmlns="http://www.w3.org/2000/svg"><path d="m10 26.36l0 8 14 7.64 14-7.64 0-8L24 34 10 26.36ZM24 6L2 18 24 30 42 20.18 42 34 46 34 46 18 24 6Z"/></svg>
